X: 17339
T: High Caul Cap
R: polka
M: 2/4
K: Gmajor
G>A BB|cA B2|BA AG/A/|BA A2|
G>A BB|cA B2|BA dd|G2 G2:|
|:e2 d>d|cd B2|BA AG/A/|BA A2|
e2 d>d|cd B2|BA dd|G2 G2:|

